static/img/kroki/d667474b6dfcbe79987016fe72eeef61.svg

<?xml version="1.0" encoding="us-ascii" standalone="no"?><svg xmlns="http://www.w3.org/2000/svg" xmlns:xlink="http://www.w3.org/1999/xlink" contentStyleType="text/css" height="152px" preserveAspectRatio="none" style="width:521px;height:152px;" version="1.1" viewBox="0 0 521 152" width="521px" zoomAndPan="magnify"><defs/><g><!--class azure_ddos_protection_plan--><g id="elem_azure_ddos_protection_plan"><rect codeLine="22" fill="#3D176E" height="39.7891" id="azure_ddos_protection_plan" rx="2.5" ry="2.5" style="stroke:#000D19;stroke-width:0.5;" width="274" x="126" y="7"/><ellipse cx="141" cy="26.8945" fill="#ADD1B2" rx="11" ry="11" style="stroke:#181818;stroke-width:1.0;"/><path d="M143.9688,32.5352 Q143.3906,32.832 142.75,32.9727 Q142.1094,33.1289 141.4063,33.1289 Q138.9063,33.1289 137.5781,31.4883 Q136.2656,29.832 136.2656,26.707 Q136.2656,23.582 137.5781,21.9258 Q138.9063,20.2695 141.4063,20.2695 Q142.1094,20.2695 142.75,20.4258 Q143.4063,20.582 143.9688,20.8789 L143.9688,23.5977 Q143.3438,23.0195 142.75,22.7539 Q142.1563,22.4727 141.5313,22.4727 Q140.1875,22.4727 139.5,23.5508 Q138.8125,24.6133 138.8125,26.707 Q138.8125,28.8008 139.5,29.8789 Q140.1875,30.9414 141.5313,30.9414 Q142.1563,30.9414 142.75,30.6758 Q143.3438,30.3945 143.9688,29.8164 L143.9688,32.5352 Z " fill="#000000"/><text fill="#D9B8FF" font-family="Helvetica" font-size="17" lengthAdjust="spacing" textLength="232" x="160" y="32.7798">azure_ddos_protection_plan</text></g><!--class azure_public_ip_address--><g id="elem_azure_public_ip_address"><rect codeLine="24" fill="#3D176E" height="39.7891" id="azure_public_ip_address" rx="2.5" ry="2.5" style="stroke:#000D19;stroke-width:0.5;" width="242" x="7" y="106.79"/><ellipse cx="22" cy="126.6845" fill="#ADD1B2" rx="11" ry="11" style="stroke:#181818;stroke-width:1.0;"/><path d="M24.9688,132.3252 Q24.3906,132.622 23.75,132.7627 Q23.1094,132.9189 22.4063,132.9189 Q19.9063,132.9189 18.5781,131.2783 Q17.2656,129.622 17.2656,126.497 Q17.2656,123.372 18.5781,121.7158 Q19.9063,120.0595 22.4063,120.0595 Q23.1094,120.0595 23.75,120.2158 Q24.4063,120.372 24.9688,120.6689 L24.9688,123.3877 Q24.3438,122.8095 23.75,122.5439 Q23.1563,122.2627 22.5313,122.2627 Q21.1875,122.2627 20.5,123.3408 Q19.8125,124.4033 19.8125,126.497 Q19.8125,128.5908 20.5,129.6689 Q21.1875,130.7314 22.5313,130.7314 Q23.1563,130.7314 23.75,130.4658 Q24.3438,130.1845 24.9688,129.6064 L24.9688,132.3252 Z " fill="#000000"/><text fill="#D9B8FF" font-family="Helvetica" font-size="17" lengthAdjust="spacing" textLength="200" x="41" y="132.5698">azure_public_ip_address</text></g><!--class azure_virtual_network--><g id="elem_azure_virtual_network"><rect codeLine="26" fill="#3D176E" height="39.7891" id="azure_virtual_network" rx="2.5" ry="2.5" style="stroke:#000D19;stroke-width:0.5;" width="231" x="283.5" y="106.79"/><ellipse cx="298.5" cy="126.6845" fill="#ADD1B2" rx="11" ry="11" style="stroke:#181818;stroke-width:1.0;"/><path d="M301.4688,132.3252 Q300.8906,132.622 300.25,132.7627 Q299.6094,132.9189 298.9063,132.9189 Q296.4063,132.9189 295.0781,131.2783 Q293.7656,129.622 293.7656,126.497 Q293.7656,123.372 295.0781,121.7158 Q296.4063,120.0595 298.9063,120.0595 Q299.6094,120.0595 300.25,120.2158 Q300.9063,120.372 301.4688,120.6689 L301.4688,123.3877 Q300.8438,122.8095 300.25,122.5439 Q299.6563,122.2627 299.0313,122.2627 Q297.6875,122.2627 297,123.3408 Q296.3125,124.4033 296.3125,126.497 Q296.3125,128.5908 297,129.6689 Q297.6875,130.7314 299.0313,130.7314 Q299.6563,130.7314 300.25,130.4658 Q300.8438,130.1845 301.4688,129.6064 L301.4688,132.3252 Z " fill="#000000"/><text fill="#D9B8FF" font-family="Helvetica" font-size="17" lengthAdjust="spacing" textLength="189" x="317.5" y="132.5698">azure_virtual_network</text></g><!--link azure_ddos_protection_plan to azure_public_ip_address--><g id="link_azure_ddos_protection_plan_azure_public_ip_address"><path codeLine="28" d="M236.33,47.22 C212.66,64.36 183.1283,85.749 159.4783,102.889 " fill="none" id="azure_ddos_protection_plan-to-azure_public_ip_address" style="stroke:#1A83AF;stroke-width:2.0;"/><polygon fill="#1A83AF" points="154.62,106.41,164.2547,104.3674,158.6686,103.4759,159.5601,97.8897,154.62,106.41" style="stroke:#1A83AF;stroke-width:2.0;"/></g><!--link azure_ddos_protection_plan to azure_virtual_network--><g id="link_azure_ddos_protection_plan_azure_virtual_network"><path codeLine="29" d="M289.87,47.22 C313.71,64.36 343.4891,85.7665 367.3191,102.9065 " fill="none" id="azure_ddos_protection_plan-to-azure_virtual_network" style="stroke:#1A83AF;stroke-width:2.0;"/><polygon fill="#1A83AF" points="372.19,106.41,367.2193,97.9075,368.1309,103.4905,362.548,104.4021,372.19,106.41" style="stroke:#1A83AF;stroke-width:2.0;"/></g><!--SRC=[bP91Qm8n48Nl_eg0Py7jqggNmbQGzYAbzbRAajrCD6ms2PDPHKl_UrrjIynMfTTvN-QzDsIb132e7MrP3NK1w7k-KiPnv3NB4ErcQhL5rfUIotGKYpDhw2emvpMmHz1h85Noc7XTgR8ou3sx2QG7NbPBj8qHn_M4tFYz18O2QggvznaHgg8X2CA8IJ6MCYRZfVrK9ACxw60M1U0tCXmEHJA9aQjM5tl_4Wkr0vQ4HvjRWaxCZiM1kfYo9OAGdQ8_-jcCprm8PPRiDfYz73EX0JoPBrPSs4rBIwvzQEC942nj7KmxhM0o5dBq9_nq3YxRop6-Qn1o8QpF7UwBbAIioPtcXdtqFayWrnHQbRbo-RuFjhyi9jOAgU4wDq0RYzL1ls0mUEidsJZDPk-3-tCU_tmV9VW2]--></g></svg>

<svg xmlns="http://www.w3.org/2000/svg" width="521" height="152" viewBox="0 0 521 152"><rect width="274" height="39.789" x="126" y="7" fill="#3D176E" rx="2.5" ry="2.5" style="stroke:#000d19;stroke-width:.5"/><circle cx="141" cy="26.895" r="11" fill="#ADD1B2" style="stroke:#181818;stroke-width:1"/><path d="M143.969 32.535q-.578.297-1.219.438-.64.156-1.344.156-2.5 0-3.828-1.64-1.312-1.657-1.312-4.782t1.312-4.781q1.328-1.656 3.828-1.656.703 0 1.344.156.656.156 1.219.453v2.719q-.625-.578-1.219-.844-.594-.281-1.219-.281-1.344 0-2.031 1.078-.687 1.062-.687 3.156t.687 3.172q.688 1.062 2.031 1.062.625 0 1.219-.265.594-.281 1.219-.86z"/><text x="160" y="32.78" fill="#D9B8FF" font-family="Helvetica" font-size="17" textLength="232">azure_ddos_protection_plan</text><rect width="242" height="39.789" x="7" y="106.79" fill="#3D176E" rx="2.5" ry="2.5" style="stroke:#000d19;stroke-width:.5"/><circle cx="22" cy="126.684" r="11" fill="#ADD1B2" style="stroke:#181818;stroke-width:1"/><path d="M24.969 132.325q-.578.297-1.219.438-.64.156-1.344.156-2.5 0-3.828-1.64-1.312-1.657-1.312-4.782t1.312-4.781q1.328-1.656 3.828-1.656.703 0 1.344.156.656.156 1.219.453v2.719q-.625-.579-1.219-.844-.594-.281-1.219-.281-1.343 0-2.031 1.078-.687 1.062-.687 3.156t.687 3.172q.688 1.062 2.031 1.062.625 0 1.219-.265.594-.281 1.219-.86z"/><text x="41" y="132.57" fill="#D9B8FF" font-family="Helvetica" font-size="17" textLength="200">azure_public_ip_address</text><rect width="231" height="39.789" x="283.5" y="106.79" fill="#3D176E" rx="2.5" ry="2.5" style="stroke:#000d19;stroke-width:.5"/><circle cx="298.5" cy="126.684" r="11" fill="#ADD1B2" style="stroke:#181818;stroke-width:1"/><path d="M301.469 132.325q-.578.297-1.219.438-.64.156-1.344.156-2.5 0-3.828-1.64-1.312-1.657-1.312-4.782t1.312-4.781q1.328-1.656 3.828-1.656.703 0 1.344.156.656.156 1.219.453v2.719q-.625-.579-1.219-.844-.594-.281-1.219-.281-1.344 0-2.031 1.078-.687 1.062-.687 3.156t.687 3.172q.688 1.062 2.031 1.062.625 0 1.219-.265.594-.281 1.219-.86z"/><text x="317.5" y="132.57" fill="#D9B8FF" font-family="Helvetica" font-size="17" textLength="189">azure_virtual_network</text><path fill="none" d="M236.33 47.22c-23.67 17.14-53.202 38.529-76.852 55.669" style="stroke:#1a83af;stroke-width:2"/><path fill="#1A83AF" d="m154.62 106.41 9.635-2.043-5.586-.891.891-5.586z" style="stroke:#1a83af;stroke-width:2"/><path fill="none" d="M289.87 47.22c23.84 17.14 53.62 38.546 77.45 55.686" style="stroke:#1a83af;stroke-width:2"/><path fill="#1A83AF" d="m372.19 106.41-4.97-8.502.91 5.582-5.582.912z" style="stroke:#1a83af;stroke-width:2"/></svg>
